lib/healthicons/icons/outline/typography/Y.svg

<svg fill="none" height="48" viewBox="0 0 48 48" width="48" xmlns="http://www.w3.org/2000/svg"><path clip-rule="evenodd" d="m31.6954 10.0795c1.0607-1.27281 2.9524-1.44478 4.2252-.38409 1.2729 1.06069 1.4448 2.95239.3841 4.22519l-.7682-.6402.7682.6402-9.3046 11.1656v10.9139c0 1.6568-1.3432 3-3 3-1.6569 0-3-1.3432-3-3v-10.9139l-9.3047-11.1656c-1.0607-1.2728-.8887-3.1645.3841-4.22519l.6402.76819-.6402-.76819c1.2729-1.06069 3.1645-.88872 4.2252.38409l7.6954 9.2344zm2.9449 1.1524c-.4243-.3536-1.0549-.2963-1.4085.128l-8.4635 10.1563c-.19.228-.4714.3598-.7682.3598s-.5783-.1318-.7682-.3598l-8.4636-10.1563c-.3536-.4243-.9841-.4816-1.4084-.128-.4243.3535-.4816.9841-.128 1.4084l9.5364 11.4437c.1498.1797.2318.4062.2318.6402v11.2759c0 .5523.4477 1 1 1s1-.4477 1-1v-11.2759c0-.234.082-.4605.2318-.6402l9.5364-11.4437c.3536-.4243.2962-1.0549-.128-1.4084z" fill="#333" fill-rule="evenodd"/></svg>

<svg width="48" height="48" viewBox="0 0 48 48" fill="none" xmlns="http://www.w3.org/2000/svg">
<path fill-rule="evenodd" clip-rule="evenodd" d="M31.6954 10.0795C32.7561 8.80669 34.6478 8.63472 35.9206 9.69541C37.1935 10.7561 37.3654 12.6478 36.3047 13.9206L35.5365 13.2804L36.3047 13.9206L27.0001 25.0862V36.0001C27.0001 37.6569 25.6569 39.0001 24.0001 39.0001C22.3432 39.0001 21.0001 37.6569 21.0001 36.0001V25.0862L11.6954 13.9206C10.6347 12.6478 10.8067 10.7561 12.0795 9.69541L12.7197 10.4636L12.0795 9.69541C13.3524 8.63472 15.244 8.80669 16.3047 10.0795L24.0001 19.3139L31.6954 10.0795ZM34.6403 11.2319C34.216 10.8783 33.5854 10.9356 33.2318 11.3599L24.7683 21.5162C24.5783 21.7442 24.2969 21.876 24.0001 21.876C23.7033 21.876 23.4218 21.7442 23.2319 21.5162L14.7683 11.3599C14.4147 10.9356 13.7842 10.8783 13.3599 11.2319C12.9356 11.5854 12.8783 12.216 13.2319 12.6403L22.7683 24.084C22.9181 24.2637 23.0001 24.4902 23.0001 24.7242V36.0001C23.0001 36.5524 23.4478 37.0001 24.0001 37.0001C24.5524 37.0001 25.0001 36.5524 25.0001 36.0001V24.7242C25.0001 24.4902 25.0821 24.2637 25.2319 24.084L34.7683 12.6403C35.1219 12.216 35.0645 11.5854 34.6403 11.2319Z" fill="#333333"/>
</svg>
